build/images/icons/study.svg

<svg width="20" height="20" viewBox="0 0 20 20" fill="none" xmlns="http://www.w3.org/2000/svg">
<path d="M19.9702 19.2306L18.9959 16.2751C19.5888 15.9924 19.9997 15.3871 19.9997 14.6876C19.9997 13.9238 19.5098 13.2725 18.8278 13.0306V6.25909L19.6749 5.83729C19.8736 5.73838 19.9993 5.53569 19.9997 5.31374C20 5.09178 19.875 4.8887 19.6766 4.78913L10.2627 0.0626513C10.0973 -0.0203955 9.90233 -0.0203955 9.7369 0.0626513L0.323047 4.78913C0.124688 4.8887 -0.000350822 5.09182 7.39409e-07 5.31374C0.000352301 5.53565 0.126133 5.73838 0.324805 5.83729L3.51562 7.42608V11.172C3.51562 11.3404 3.58804 11.5006 3.71437 11.6119C3.82988 11.7135 6.58202 14.1017 9.99986 14.1017C13.4177 14.1017 16.1699 11.7135 16.2854 11.6119C16.4117 11.5006 16.4841 11.3404 16.4841 11.172V7.42608L17.6559 6.84256V13.0306C16.974 13.2725 16.4841 13.9238 16.4841 14.6876C16.4841 15.3871 16.8949 15.9923 17.4879 16.2751L16.5136 19.2306C16.3886 19.6097 16.6718 20 17.07 20H19.4138C19.8129 20 20.0949 19.6089 19.9702 19.2306ZM15.3122 10.8932C14.6598 11.4008 12.4874 12.9299 9.99986 12.9299C7.5119 12.9299 5.33925 11.4004 4.68745 10.8933V8.00959L9.73869 10.5247C9.82092 10.5657 9.91041 10.5862 9.99986 10.5862C10.0893 10.5862 10.1788 10.5657 10.261 10.5247L15.3123 8.00959L15.3122 10.8932ZM17.8801 18.8282L18.2419 17.7309L18.6036 18.8282H17.8801ZM18.2419 15.2736C17.9188 15.2736 17.6559 15.0107 17.6559 14.6876C17.6559 14.3645 17.9188 14.1017 18.2419 14.1017C18.565 14.1017 18.8278 14.3645 18.8278 14.6876C18.8278 15.0107 18.565 15.2736 18.2419 15.2736Z" fill="#52BFFF"/>
</svg>

<svg width="20" height="20" fill="none" xmlns="http://www.w3.org/2000/svg"><path d="m19.97 19.23-.974-2.955A1.76 1.76 0 0 0 20 14.688a1.76 1.76 0 0 0-1.172-1.657V6.259l.847-.422a.586.586 0 0 0 .002-1.048L10.263.063a.586.586 0 0 0-.526 0L.323 4.789a.586.586 0 0 0 .002 1.048l3.19 1.59v3.745c0 .168.073.329.2.44.115.101 2.867 2.49 6.285 2.49s6.17-2.389 6.285-2.49a.586.586 0 0 0 .2-.44V7.426l1.17-.583v6.188a1.76 1.76 0 0 0-1.17 1.657c0 .7.41 1.304 1.003 1.587l-.974 2.956c-.125.379.158.769.556.769h2.344c.399 0 .68-.391.556-.77Zm-4.658-8.337c-.652.508-2.825 2.037-5.312 2.037-2.488 0-4.66-1.53-5.313-2.037V8.01l5.052 2.515a.585.585 0 0 0 .522 0l5.051-2.515v2.883Zm2.568 7.935.362-1.097.362 1.097h-.724Zm.362-3.554a.587.587 0 1 1 .001-1.174.587.587 0 0 1-.001 1.174Z" fill="#52BFFF"/></svg>
